src/pos-icons/sort-variant-lock.svg

<svg height="24" viewBox="0 0 24 24" width="24" xmlns="http://www.w3.org/2000/svg"><path d="m3 13v-2h12v2zm0-7h18v2h-18zm0 12v-2h6v2zm19 4h-8v-4h1v-1a3 3 0 0 1 3-3 3 3 0 0 1 3 3v1h1zm-4-6a1 1 0 0 0 -1 1v1h2v-1a1 1 0 0 0 -1-1z"/></svg>

<?xml version="1.0" encoding="UTF-8"?><!DOCTYPE svg PUBLIC "-//W3C//DTD SVG 1.1//EN" "http://www.w3.org/Graphics/SVG/1.1/DTD/svg11.dtd"><svg xmlns="http://www.w3.org/2000/svg" xmlns:xlink="http://www.w3.org/1999/xlink" version="1.1" id="mdi-sort-variant-lock" width="24" height="24" viewBox="0 0 24 24"><path d="M3,13V11H15V13H3M3,6H21V8H3V6M3,18V16H9V18H3M22,22H14V18H15V17A3,3 0 0,1 18,14A3,3 0 0,1 21,17V18H22V22M18,16A1,1 0 0,0 17,17V18H19V17A1,1 0 0,0 18,16Z" /></svg>
